Newaita-dark/actions/16/mail-mark-unread.svg

<svg height="16" viewBox="0 0 16 16" width="16" xmlns="http://www.w3.org/2000/svg"><g fill="#e0e0e0"><path d="m2.644531 2.769531c-.730469 0-1.320312.589844-1.320312 1.324219v7.9375c0 .734375.589843 1.324219 1.320312 1.324219h10.585938c.734375 0 1.324219-.589844 1.324219-1.324219v-7.9375c0-.734375-.589844-1.324219-1.324219-1.324219zm.664063 1.324219h9.261718c.363282 0 .660157.296875.660157.660156v6.617188c0 .367187-.296875.660156-.660157.660156h-9.261718c-.367188 0-.664063-.292969-.664063-.660156v-6.617188c0-.363281.296875-.660156.664063-.660156zm0 0"/><path d="m2.421875 2.941406-.875.984375 5.953125 5.292969c.25.21875.625.21875.875 0l5.953125-5.292969-.875-.984375-5.515625 4.902344zm0 0"/></g></svg>

<svg xmlns="http://www.w3.org/2000/svg" xmlns:xlink="http://www.w3.org/1999/xlink" width="16px" height="16px" viewBox="0 0 16 16" version="1.1">
<g id="surface1">
     <defs>
  <style id="current-color-scheme" type="text/css">
   .ColorScheme-Text { color:#eeeeee; } .ColorScheme-Highlight { color:#424242; }
  </style>
 </defs>
<path style="fill:currentColor" class="ColorScheme-Text" d="M 2.644531 2.769531 C 1.914062 2.769531 1.324219 3.359375 1.324219 4.09375 L 1.324219 12.03125 C 1.324219 12.765625 1.914062 13.355469 2.644531 13.355469 L 13.230469 13.355469 C 13.964844 13.355469 14.554688 12.765625 14.554688 12.03125 L 14.554688 4.09375 C 14.554688 3.359375 13.964844 2.769531 13.230469 2.769531 Z M 3.308594 4.09375 L 12.570312 4.09375 C 12.933594 4.09375 13.230469 4.390625 13.230469 4.753906 L 13.230469 11.371094 C 13.230469 11.738281 12.933594 12.03125 12.570312 12.03125 L 3.308594 12.03125 C 2.941406 12.03125 2.644531 11.738281 2.644531 11.371094 L 2.644531 4.753906 C 2.644531 4.390625 2.941406 4.09375 3.308594 4.09375 Z M 3.308594 4.09375 "/>
     <defs>
  <style id="current-color-scheme" type="text/css">
   .ColorScheme-Text { color:#eeeeee; } .ColorScheme-Highlight { color:#424242; }
  </style>
 </defs>
<path style="fill:currentColor" class="ColorScheme-Text" d="M 2.421875 2.941406 L 1.546875 3.925781 L 7.5 9.21875 C 7.75 9.4375 8.125 9.4375 8.375 9.21875 L 14.328125 3.925781 L 13.453125 2.941406 L 7.9375 7.84375 Z M 2.421875 2.941406 "/>
</g>
</svg>
